X: 25
T:Taumarunui (On The Main Trunk Line)
M:6/8
L:1/8
C:Peter Cape
K:C
G2E|"C"C2C C2D|EC2 D2E|"F"F2E FA2|
"C"G2Z G2F|E2D E2F|!
G2E C2E|"D"D2E F2D|"G"G2Z G2G|
"C"C2C C2D|E2 C2 CC|"F"F2E F2G|!
A3A2B|"C"cB2 c2A|G2E C2E|
"D"DEF-F2D|"G"G3G3|
"C"z3 "Chorus:"C2D|EG2- G3|!
"F"z3 F2G|Ac2-c3|"C"z3 c2A|
GE2 C2D|E3 D3|C2z:||
